Icons/Transportation_4.svg

<?xml version="1.0" encoding="UTF-8" standalone="no"?>
<!DOCTYPE svg PUBLIC "-//W3C//DTD SVG 1.1//EN" "http://www.w3.org/Graphics/SVG/1.1/DTD/svg11.dtd">
<svg width="100%" height="100%" viewBox="0 0 24 24" version="1.1" xmlns="http://www.w3.org/2000/svg" xmlns:xlink="http://www.w3.org/1999/xlink" xml:space="preserve" xmlns:serif="http://www.serif.com/" style="fill-rule:evenodd;clip-rule:evenodd;stroke-linecap:round;stroke-linejoin:round;">
    <rect id="Transportation" x="0" y="0" width="24" height="24" style="fill:none;"/>
    <path d="M10,16.5L14,16.5L14,4.5L2,4.5L2,16.5L5,16.5" style="fill:none;fill-rule:nonzero;stroke:#000;stroke-width:2px;"/>
    <path d="M20,16.5L22,16.5L22,13.16C22.001,12.099 21.58,11.081 20.83,10.33L19,8.5L14,8.5" style="fill:none;fill-rule:nonzero;stroke:#000;stroke-width:2px;"/>
    <path d="M14,16.5L15,16.5" style="fill:none;fill-rule:nonzero;stroke:#000;stroke-width:2px;"/>
    <circle cx="7.5" cy="17" r="2.5" style="fill:none;stroke:#000;stroke-width:2px;"/>
    <circle cx="17.5" cy="17" r="2.5" style="fill:none;stroke:#000;stroke-width:2px;"/>
</svg>

<svg xmlns="http://www.w3.org/2000/svg" xml:space="preserve" fill-rule="evenodd" stroke-linecap="round" stroke-linejoin="round" clip-rule="evenodd" viewBox="0 0 24 24"><path fill="none" d="M0 0h24v24H0z"/><path fill="none" stroke="#000" stroke-width="2" d="M10 16.5h4v-12H2v12h3m15 0h2v-3.34a4 4 0 0 0-1.17-2.83L19 8.5h-5m0 8h1"/><circle cx="7.5" cy="17" r="2.5" fill="none" stroke="#000" stroke-width="2"/><circle cx="17.5" cy="17" r="2.5" fill="none" stroke="#000" stroke-width="2"/></svg>
